X:5
T:score100
L:1/8
Q:1/4=96
M:6/8
I:linebreak $
K:F#min
 (c>dc e2 e) | (B>cB d2 d) | (A2 A B2 B | c2 e/d/ c2 B) |$ (c>dc e2 e) | (B>cB d2 d) | (A2 B c2 d | %7
 c2 B A2) z |] %8
